!!!!SEGMENT: pl-kk--kk-i-264--002_anonim--alleluia-ave-maria.krn
!!!cenid: 16xx:782
!!!COM: Anonim
!!!COM-rismID: pe30004985
!!!CDT:
!!!CNT:
!!!OTL: Alleluia Ave Maria
!!!PDT:
!!!AGN: Sacred
!!!SMS-siglum: PL-Kk
!!!SMS-shelfmark: Kk.I.264
!!!SMS-shelfwork: 002 W
!!!SMS-variant:
!!!SMS-altvar:
!!!NIFC-rismSourceID: 1001143729
!!!NIFC-rismChildID: 1001143731
!!!NIFC-islandoraID: pl-kk:4742
!!!URL-pdf-islandora: https://repozytorium.nifc.pl/islandora/object/pl-kk%3A4742/datastream/PDF/view
!!!URL-scan: https://polish.musicsources.pl/pl/lokalizacje/galeria/rekopisy/5884 @EN{Scan on Polish Music Sources Website} @PL{Skany w portalu Dziedzictwo Muzyki Polskiej w otwartym dostępie}
!!!IIIF:
!!!ONB-nifc: UWAGA: utwory w zbiorze: 1. Rorate caeli, 2. Alleluia Ave Maria
!!!AIN: 1 alto 2 empty 1 tenor 1 vox
!!!key:
**kern	**fba	**text	**kern	**text	**kern	**text	**kern	**text	**kern	**text
*part5	*	*part5	*part4	*part4	*part3	*part3	*part2	*part2	*part1	*part1
*staff5	*	*staff5	*staff4	*staff4	*staff3	*staff3	*staff2	*staff2	*staff1	*staff1
*Iempty	*	*	*Iempty	*	*Itenor	*	*Ialto	*	*Ivox	*
*I"Baſso Ripieno.	*	*	*I"Baſso.	*	*I"Tenore	*	*I"Alto.	*	*I"Canto.	*
*I'B rip	*	*	*I'B	*	*I'T	*	*I'A	*	*I'S	*
*clefF4	*	*	*clefF4	*	*clefC4	*	*clefC3	*	*clefC1	*
*k[b-e-]	*	*	*k[b-e-]	*	*k[b-e-]	*	*k[b-e-]	*	*k[b-e-]	*
*B-:	*	*	*B-:	*	*B-:	*	*B-:	*	*B-:	*
*M2/2	*	*	*M2/2	*	*M2/2	*	*M2/2	*	*M2/2	*
*met(c|)	*	*	*met(c|)	*	*met(c|)	*	*met(c|)	*	*met(c|)	*
*>[A,B,A]	*	*	*>[A,B,A]	*	*>[A,B,A]	*	*>[A,B,A]	*	*>[A,B,A]	*
=1	=1	=1	=1	=1	=1	=1	=1	=1	=1	=1
*>A	*	*	*>A	*	*>A	*	*>A	*	*>A	*
!LO:TX:t=P:znaki:problem= B- BB- E-	!	!	!LO:TX:t=P:znaki:problem= BB- E- B-	!	!	!	!	!	!	!
!LO:TX:a:t=Lente	!	!	!LO:TX:a:t=Lente	!	!	!	!	!	!LO:TX:t=P:znaki:problem= ee- zamiast e-	!
4r	.	.	4r	.	4r	.	4r	.	4r	.
4B-\	.	Al-	4B-\	Al-	4B-\	Al-	4f\	Al-	4dd\	Al-
4A\	.	-le-	4A\	-le-	4c\	-le-	4f\	-le-	4cc\	-le-
4B-\	.	-lu-	4B-\	-lu-	4B-\	-lu-	4f\	-lu-	4dd\	-lu-
=2	=2	=2	=2	=2	=2	=2	=2	=2	=2	=2
4F,<\	.	-ia	4F,<\	-ia	4A,</	-ia	4f,<\	-ia	4cc,<\	-ia
*	*	*ij	*	*ij	*	*ij	*	*ij	*	*ij
4F\	.	Al-	4F\	Al-	4A/	Al-	4f\	Al-	4cc\	Al-
4E-X\	.	-le-	4E-X\	-le-	4G/	-le-	4g\	-le-	4cc\	-le-
4F\	.	-lu-	4F\	-lu-	4A/	-lu-	4f\	-lu-	4cc\	-lu-
=3	=3	=3	=3	=3	=3	=3	=3	=3	=3	=3
4BB-,</	.	-ia	4BB-,</	-ia	4B-,<\	-ia	4f,<\	-ia	4dd,<\	-ia
*	*	*Xij	*	*Xij	*	*Xij	*	*Xij	*	*Xij
4G\	.	al-	4G\	al-	4G/	al-	4d\	al-	4b-\	al-
4F#X\	.	-le-	4F#X\	-le-	4A/	-le-	4d\	-le-	4a\	-le-
4G\	.	-lu-	4G\	-lu-	4G/	-lu-	4d\	-lu-	4b-\	-lu-
=4	=4	=4	=4	=4	=4	=4	=4	=4	=4	=4
4D,</	.	-ia	4D,</	-ia	4F#X,</	-ia	4d,<\	-ia	4a,<\	-ia
*	*	*ij	*	*ij	*	*ij	*	*ij	*	*
4D/	.	al-	4D/	al-	4F#/	al-	4d\	al-	4a\	al-
4C/	.	-le-	4C/	-le-	4A/	-le-	4e-X\	-le-	4a\	-le-
4D/	.	-lu-	4D/	-lu-	4F#/	-lu-	4d\	-lu-	4a\	-lu-
=5	=5	=5	=5	=5	=5	=5	=5	=5	=5	=5
*	*	*	*	*	*	*	*	*	*2\right	*
4GG/	.	-ia	4GG/	-ia	2.G/	-ia	4d\	-ia	2.b-\	-ia
*	*	*Xij	*	*Xij	*	*Xij	*	*Xij	*	*
4r	.	.	4r	.	.	.	4r	.	.	.
2rC	.	.	2rC	.	.	.	2rA	.	.	.
.	.	.	.	.	4A/	.	.	.	4cc\	.
!LO:LB:g=original	!	!	!	!	!	!	!	!	!	!
=6	=6	=6	=6	=6	=6	=6	=6	=6	=6	=6
*2\right	*	*	*2\right	*	*2\right	*	*2\right	*	*	*
2.D\	.	al-	2.D\	al-	2B-\	al-	2.f\	al-	2dd\	al-
.	.	.	.	.	4B-\	-le-	.	.	4dd\	.
4E-\	.	.	4E-\	.	4B-\	-lu-	4g\	.	4cc\	.
=7	=7	=7	=7	=7	=7	=7	=7-	=7	=7	=7
2.F\	.	.	2.F\	.	2.A\	-ia	2.an\	.	2.cc\	.
*	*	*	*	*	*	*	*	*	*custos:ee-	*
8E-\L	.	.	8E-\L	.	8B-\L	.	8g\L	.	4dd\	.
8D\J	.	.	8D\J	.	8d\J	.	8f\J	.	.	.
!	!	!	!	!	!	!	!	!	!LO:LB:g=original	!
=8	=8	=8	=8	=8	=8	=8	=8	=8	=8	=8
!	!	!	!	!	!	!	!LO:TX:a:t=P:problem=kasownik przeprawiany na bemol, dopisek "Des"	!	!	!
!	!	!	!	!	!	!	!LO:SIC:v:s=2e-	!	!	!
2C/	.	-le-	2C/	.	2A\	.	2en\	.	2ee-\	.
*	*	*	*	*	*custos:c	*	*	*	*	*
2BB-/	.	.	2BB-/	.	2B-\	al-	2f\	.	2dd\	.
!	!	!	!LO:LB:g=original	!	!LO:LB:g=original	!	!LO:LB:g=original	!	!	!
=9	=9	=9	=9	=9	=9	=9	=9	=9	=9-	=9
2AA/	.	-lu-	2AA/	-le-	2c\	.	1.f	le-	2cc\	-le-
2BB-/	.	.	2BB-/	.	2d\	.	.	.	1b-	-lu-
=10	=10	=10	=10	=10	=10	=10	=10-	=10	=10-	=10
2F\	.	.	2F\	-lu-	2.c\	le-	.	.	.	.
2FF/	.	.	2FF/	.	.	.	2f\	-lu-	2a\	.
.	.	.	.	.	4c\	-lu-	.	.	.	.
=11	=11	=11	=11	=11	=11	=11	=11	=11	=11	=11
4BB-,</	.	-ia	4BB-,</	-ia	4d,<\	-ia	4f,<\	-ia	4b-,<\	-ia
*	*	*ij	*	*ij	*	*ij	*	*ij	*	*ij
4B-\	.	al-	4B-\	Al-	4B-\	al-	4f\	al-	4dd\	al-
4F\	.	-le-	4F\	-le-	4A\	-le-	4f\	-le-	4cc\	-le-
4B-\	.	-lu-	4B-\	-lu-	4B-\	-lu-	4f\	-lu-	4dd\	-lu-
=12	=12	=12	=12	=12	=12	=12	=12	=12	=12	=12
4G,<\	.	-ia	4G,<\	-ia	4B-,<\	-ia	4g,<\	-ia	4dd,<\	-ia
*	*	*Xij	*	*Xij	*	*Xij	*	*Xij	*	*Xij
4E-\	.	al-	4E-\	al-	4B-\	al-	4g\	al-	4cc\	al-
4F\	.	-le-	4F\	-le-	4A\	-le-	4f\	-le-	4cc\	-le-
!	!	!	!LO:TX:t=P:problem=brak kreski taktowej	!	!	!	!	!	!	!
4FF/	.	-lu-	4FF/	-lu-	4A\	-lu-	4f\	-lu-	4cc\	-lu-
=13	=13	=13	=13	=13	=13-	=13	=13	=13	=13-	=13
0BB-;	.	-ia	0BB-;	-ia	0B-;	-ia.	0f;	-ia	0dd;<	-ia
=14||	=14||	=14||	=14||	=14||	=14||	=14||	=14||	=14||	=14||	=14||
*M2/2	*	*	*M2/2	*	*M2/2	*	*M2/2	*	*M2/2	*
*met(c|)	*	*	*met(c|)	*	*met(c|)	*	*met(c|)	*	*met(c|)	*
*>B	*	*	*>B	*	*>B	*	*>B	*	*>B	*
00r	.	.	00r	.	00r	.	1ra	.	2ff\	A-
.	.	.	.	.	.	.	.	.	2an\	-ve
=15	=15	=15	=15	=15	=15	=15	=15	=15	=15	=15
.	.	.	.	.	.	.	2b-\	A-	4r	.
.	.	.	.	.	.	.	.	.	4dd\	Ma-
.	.	.	.	.	.	.	2d\	-ve	4ff\	-ri-
.	.	.	.	.	.	.	.	.	4b-\	-a
=16	=16	=16	=16	=16	=16	=16	=16	=16	=16	=16
.	.	.	.	.	.	.	4r	.	2ee-X\	A-
.	.	.	.	.	.	.	4g\	Ma-	.	.
.	.	.	.	.	.	.	4b-\	-ri-	4dd\	-ve
.	.	.	.	.	.	.	4e-\	-a	4cc\	Ma-
=17	=17	=17	=17	=17	=17	=17	=17	=17	=17	=17
.	.	.	.	.	.	.	2b-\	a-	2dd\	-ri-
.	.	.	.	.	.	.	4an\	-ve	4cc\	.
.	.	.	.	.	.	.	4g\	Ma-	4b-\	-a
!	!	!	!	!	!	!	!	!	!LO:LB:g=original	!
=18	=18	=18	=18	=18	=18	=18	=18-	=18	=18	=18
1r	.	.	1r	.	2f\	A-	2.f\	-ri-	4.a\	gra-
.	.	.	.	.	.	.	.	.	8b-\	-ti-
.	.	.	.	.	2An/	-ve	.	.	[<2cc\	-a
.	.	.	.	.	.	.	4f,<\	-a	.	.
!	!	!	!	!	!	!	!LO:LB:g=original	!	!	!
=19	=19	=19	=19	=19	=19	=19	=19	=19	=19	=19
*	*	*	*	*	*	*	*	*ij	*	*
2B-\	.	A-	2B-\	A-	4r	.	2f\	a-	4cc\]	.
.	.	.	.	.	4d\	Ma-	.	.	4b-\	.
2D\	.	-ve	2D/	-ve	4f\	-ri-	4f\	-ve	[<2b-\	ple-
.	.	.	.	.	4B-\	-a	4f\	Ma-	.	.
=20	=20	=20	=20	=20	=20	=20	=20	=20	=20	=20
4r	.	.	4r	.	2e-\	Gra-	2g\	-ri-	2.b-\]	.
4G\	.	Ma-	4G\	Ma-	.	.	.	.	.	.
4B-\	.	-ri-	4B-\	-ri-	(4d\	.	2g\	-a	.	.
*	*	*	*	*	*	*	*	*Xij	*	*
4E-\	.	-a	4E-\	-a	4c\)	.	.	.	[<4cc\	.
!LO:LB:g=original	!	!	!	!	!	!	!	!	!	!
=21	=21	=21	=21	=21	=21	=21	=21	=21	=21	=21
2B-\	.	gra-	2B-\	gra-	2d\	.	2f\	Gra-	4cc\]	.
.	.	.	.	.	.	.	.	.	4b-\	.
4An\	.	-ti-	4An\	-ti-	4c\	-ti-	4f\	-ti-	4cc\	.
*	*	*	*custos:F	*	*custos:A	*	*	*	*	*
4G\	.	-a	4G\	-a	4G/	-a	4en\	-a	4b-\	.
!	!	!	!LO:LB:g=original	!	!LO:LB:g=original	!	!	!	!	!
=22	=22	=22	=22	=22	=22	=22	=22	=22	=22	=22
4F\	.	ple-	4F\	ple-	4A/	ple-	4f\	ple-	4a\	.
4F,<\	.	-na	4F,<\	-na	4A/	-na	4f\	-na	4a\	-na
(4B-\	.	Do-	(4B-\	Do-	[<2B-\	Do-	(2f\	Do-	2dd\	Do-
4A-X\)	.	.	4A-X\)	.	.	.	.	.	.	.
=23	=23	=23	=23	=23	=23	=23	=23	=23	=23	=23
4G\	.	.	4G\	.	4B-\]	.	4g\)	.	4ee-\	.
4F\	.	-mi-	4F\	-mi-	4A-X\	-mi-	4a-X\	-mi-	4dd\	-mi-
2E-\	.	-n(us)	2E-\	-n(us)	2B-\	-n(us)	2g\	-n(us)	[<2ee-\	-n(us)
=24	=24	=24	=24	=24	=24	=24	=24	=24	=24	=24
2A-X\	.	Te-	2A-X\	Te-	(2c\	Te-	1f	Te-	2ee-\]	.
2B-\	.	.	2B-\	.	2B-\)	.	.	.	2dd\	Te-
=25	=25	=25	=25	=25	=25	=25	=25	=25	=25	=25
4E-,<\	.	-cum	4E-,<\	-cum	4B-\	-cum.	4e-\	-cum.	4ee-\	-cum.
4B-\	.	be-	4B-\	be-	4r	.	4r	.	4r	.
4B-\	.	-ne-	4B-\	-ne-	2r	.	2rB	.	2r	.
4B-\	.	-di-	4B-\	-di-	.	.	.	.	.	.
=26	=26	=26	=26	=26	=26	=26	=26	=26	=26	=26
4A,<\	.	-cta	4An,<\	-cta	4r	.	1ra	.	0r	.
*	*	*ij	*	*ij	*	*	*	*	*	*
4F\	.	be-	4F\	be-	4f\	be-	.	.	.	.
4G\	.	-ne-	4G\	-ne-	4f\	-ne-	.	.	.	.
4A\	.	-di-	4A\	-di-	4f\	-di-	.	.	.	.
=27	=27	=27	=27	=27	=27	=27	=27	=27	=27	=27
2.B-\	.	-cta	2.B-\	-cta	4d,<\	-cta	4r	.	.	.
*	*	*Xij	*	*Xij	*	*ij	*	*	*	*
.	.	.	.	.	4B-\	be-	4b-\	be-	.	.
.	.	.	.	.	4c\	-ne-	4b-\	-ne-	.	.
*	*	*	*	*	*	*	*	*	*custos:ee	*
4D/	.	Tu	4BB-/	Tu	4d\	-di-	4b-\	-di-	.	.
!	!	!	!	!	!	!	!	!	!LO:LB:g=original	!
=28	=28	=28	=28	=28	=28	=28	=28	=28	=28	=28
2F\	.	in	2F\	in	2.c,<\	-cta	4an,<\	-cta	4r	.
*	*	*	*	*	*	*Xij	*	*	*	*
.	.	.	.	.	.	.	4f\	be-	4ff\	be-
4F\	.	mu-	4F\	mu-	.	.	4g\	-ne-	4ff\	-ne-
4F\	.	-li-	4F\	-li-	4c\	Tu	4a\	-di-	4ff\	-di-
!	!	!	!	!	!	!	!LO:LB:g=original	!	!	!
=29	=29	=29	=29	=29	=29	=29	=29	=29	=29	=29
2BB-/	.	-e-	2BB-/	-e-	2d\	in	2.b-\	-cta	4dd,<\	-cta
*	*	*	*	*	*	*	*	*	*	*ij
.	.	.	.	.	.	.	.	.	4b-\	be-
2B-\	.	.	2B-\	.	4d\	mu-	.	.	4cc\	-ne-
.	.	.	.	.	4d\	-li-	4b-\	Tu	4dd\	-di-
=30	=30	=30	=30	=30	=30-	=30	=30	=30	=30	=30
2C/	.	.	2C/	.	(1.c	-e-	2g\	in	2ee-X\	-cta
*	*	*	*	*	*	*	*	*	*	*Xij
2BB-/	.	.	2BB-/	.	.	.	4g\	mu-	2ee-\	Tu
.	.	.	.	.	.	.	4g\	-li-	.	.
!LO:LB:g=original	!	!	!LO:LB:g=original	!	!	!	!	!	!	!
=31	=31	=31	=31	=31	=31-	=31	=31	=31	=31	=31
2AA/	.	.	2AA/	.	.	.	1fT	-e-	2ee-\	in
2BB-/	.	.	2BB-/	.	2B-\	-[[rib(us)]]-	.	.	4dd\	mu-
.	.	.	.	.	.	.	.	.	4dd\	-li-
=32	=32	=32	=32	=32	=32	=32	=32-	=32	=32	=32
2.F\	.	.	2.F\	.	2.B-\)	.	2.f\	.	2.cc\	-e-
*	*	*	*	*	*custos:B	*	*	*	*	*
4FF/	.	-ri-	4FF/	-ri-	4A\	-ri-	4f\	-ri-	4cc\	-ri-
!	!	!	!	!	!LO:LB:g=original	!	!	!	!	!
=33	=33	=33	=33	=33	=33	=33	=33	=33	=33	=33
4BB-,</	.	-bus	4BB-,</	-bus,	4B-,<\	-bus,	4f,<\	-b(us)	2dd\	-bus
4B-\	.	et	4B-\	et	4B-\	et	4f\	et	.	.
4B-\	.	be-	4B-\	be-	4B-\	be-	4f\	be-	2r	.
4A-X\	.	-ne-	4A-X\	-ne-	4B-\	-ne-	4f\	-ne-	.	.
=34	=34	=34	=34	=34	=34	=34	=34	=34	=34	=34
(4G\	.	-di-	4G\	-di-	2B-\	-di-	2g\	-di-	4r	.
8F\L	.	.	8F\L	.	.	.	.	.	4b-\	et
8E-\J)	.	.	8E-\J	.	.	.	.	.	.	.
2D\	.	-ctus	2D/	-ctus	2B-\	-ctus	2f\	-ctus	4b-\	be-
.	.	.	.	.	.	.	.	.	4a-X\	-ne-
=35	=35	=35	=35	=35	=35	=35	=35	=35	=35	=35
2E-\	.	Fru-	2E-\	Fru-	4r	.	2g\	Fru-	2g\	-di-
*	*	*	*	*	*	*ij	*	*	*	*
.	.	.	.	.	4e-\	et	.	.	.	.
2G\	.	-ct(us)	2G\	-ct(us)	4e-\	be-	2g\	-ct(us)	2b-\	-ctus
.	.	.	.	.	4d\	-ne-	.	.	.	.
=36	=36	=36	=36	=36	=36	=36	=36	=36	=36-	=36
[<1A-X	.	Ven-	1.A-X	Ven-	2c\	-di-	2e-\	Ven-	1cc	Fru-
.	.	.	.	.	2c\	-ctus	1f	.	.	.
*	*	*	*	*	*	*Xij	*	*	*	*
=37	=37	=37	=37-	=37	=37	=37	=37	=37	=37	=37
!LO:N:xstem:cue:vis=4	!	!	!	!	!	!	!	!	!	!
2A-\]	.	.	.	.	4d\	Fru-	.	.	1b-	-ctus
.	.	.	.	.	4d,<\	-ct(us)	.	.	.	.
2G\	.	-tris	2G\	-tris	[<2e-\	Ven-	2g\	.	.	.
!	!	!	!	!	!	!	!	!	!LO:LB:g=original	!
=38	=38	=38	=38	=38	=38	=38	=38	=38	=38	=38
[<1F	.	Tu-	0F	Tu-	2e-\]	.	2c\	.	2a\	Ven-
.	.	.	.	.	2d\	-tris	(4d\	-tris	1b-	-tris
.	.	.	.	.	.	.	4e-\)	.	.	.
=39	=39	=39	=39-	=39	=39	=39	=39	=39	=39-	=39
*	*	*	*	*	*	*	*custos:f	*	*	*
1F]	.	.	.	.	1c	Tu-	1f	Tu-	.	.
.	.	.	.	.	.	.	.	.	2a\	Tu-
!	!	!	!	!	!	!	!LO:LB:g=original	!	!	!
=40	=40	=40	=40	=40	=40-	=40	=40	=40	=40	=40
2BB-/	.	-i	2BB-,</	-i	2d,<\	-i	2f,<\	-i.	2b-,<\	-i
4E-\	.	be-	4E-\	be-	4B-\	be-	4e-X\	Fru-	4g\	be-
4D\	.	-ne-	4D\	-ne-	4B-\	-ne-	4f\	-ct(us)	4b-\	-ne-
=41	=41	=41	=41	=41	=41	=41	=41	=41	=41	=41
2E-\	.	-di-	2E-\	-di-	2B-\	-di-	2g\	Ven-	2b-\	-di-
*	*	*	*	*	*custos:A	*	*	*	*	*
2BB-/	.	-ctus	2BB-/	-ctus	2B-\	-ctus	2f\	-tris	2dd\	-ctus
!LO:LB:g=original	!	!	!LO:LB:g=original	!	!LO:LB:g=original	!	!	!	!	!
=42	=42	=42	=42	=42	=42	=42	=42	=42	=42	=42
2F\	.	Fru-	2F\	Fru-	2A\	Fru-	2f\	Fru-	2cc\	Fru-
2F\	.	-ct(us)	2F\	-ct(us)	2B-\	-ctus	2d\	-ct(us)	2dd\	-ct(us)
=43	=43	=43	=43	=43	=43	=43	=43-	=43	=43	=43
2F\	5_ 3	Ven-	2F\	Ven-	2A\	Ven-	2c\	ven-	2cc\	Ven-
2F\	.	-tris	2F\	-tris	2B-\	-tris	2d\	-tris	2dd\	-tris
=44	=44	=44	=44	=44	=44-	=44	=44-	=44	=44	=44
1F	6 4	Tu-	1F	Tu-	1B-	Tu-	1d	Tu-	1dd	Tu-
=45	=45	=45	=45	=45	=45-	=45	=45-	=45	=45-	=45
!LO:TX:b:t=Alleluja da Capo.	!	!	!	!	!	!	!	!	!	!
!LO:N:vis=0	!	!	!LO:TX:b:t=alleluja da Capo.	!	!LO:TX:b:t=alleluja da Capo.	!	!LO:TX:b:t=alleluja da Capo.	!	!LO:TX:b:t=alleluia da Capo	!
1F;	.	-i.	1F;	-i.	1A;	-i.	1f;	-i.	1cc;<	-i.
==	==	==	==	==	==	==	==	==	==	==
*-	*-	*-	*-	*-	*-	*-	*-	*-	*-	*-
!!!system-decoration: [s1,s2,s3,s4]s5
!!!RDF**kern: < = below
!!!ENC: Marta Lawrence
!!!END: 2021-03-01
!!!ENC: Katarzyna Serwa
!!!END: 2021-02-15
!!!YEC: Copyright 2022 Narodowy Instytut Fryderyka Chopina (https://polishscores.org)
!!!YEM: License CC-BY-4.0 (https://creativecommons.org/licenses/by/4.0)
